X: 40575
T: Tommy Whelan's
R: reel
M: 4/4
K: Gmajor
G2DB eBdB|eAA2 EAA2|GBdB eedB|d2ge degB|
GzdB eBdB|EAA2 EAA2|GBdg eedB|d2ge dega||
bbae ged2|eaa2 eaa2|bzae gedB|d2ge dega|
bzae gedB|eaa2 eaa2|bgae gedB|d2ge degB||"last" e2ge degz||

